X:1
T:Title
%%score ( 1 2 ) { 3 | 4 }
L:1/8
M:3/4
K:Eb
V:1 treble nm="Grand Piano, Unnamed-000"
V:2 treble 
V:3 bass nm="Choir Pad, Unnamed-001"
V:4 bass 
V:1
 EF [EG]4 | [EA]2 [DB]4 | [EA][FB] [EG]4 | [DF]2 [B,E]4 | EF [EG]4 | [EA]2 [EB]4 | AB B4- | %7
w: By~Ancient~Irish~melody * *|||||||
 [FB]2 [GB]4 | B-[FB] [Ee]4 | [Fc]2 [GB]4 | [FA]2 [EG]4 | [DF]2 [CE]4 | [DG]2 [EB]4 | [EA]2 [EG]4 | %14
w: |||||||
 z2 E4- | E2 z2 z2 | z6 |] %17
w: |||
V:2
 B,2 z2 z2 | x6 | x6 | x6 | x6 | x6 | C2 E4 | x6 | .G2 z2 z2 | x6 | x6 | x6 | x6 | x6 | %14
 [DF]2 z2 z2 | C2 [B,E]4- | [B,E]4 z2 |] %17
V:3
 G,A, B,4 | A,2 F,4 | E,B, B,4 | B,A, G,4 | G,A, B,4 | C2 B,4 | E,2 G,4 | A,2 B,4 | B,2 C4 | %9
 A,2 G,4 | C2 B,3 C | D2 E4 | D2[K:bass] B,4 | C2 B,4 | A,2 G,4 | A,2 G,4- | G,4 z2 |] %17
V:4
 E,2 E,2 D,2 | C,2 D,4 | C,D, E,2 G,,2 | B,,2 E,4 | C,2 B,,4 | A,,2 G,,4 | A,,2 E,4- | E,2 E,4 | %8
 E,D, C,4 | D,2 E,4 | F,2 G,3 A, | B,2 C4 | B,2 G,2 G,,2 | A,,2 B,,4 | B,,2 E,4- | E,2 E,4- | %16
 E,4 z2 |] %17

